symbols/web/repeat_one/materialsymbolsrounded/repeat_one_wght700grad200_40px.svg

<svg xmlns="http://www.w3.org/2000/svg" height="40" width="40"><path d="M19 17.458h-.833q-.584 0-.959-.396-.375-.395-.375-.979 0-.583.396-.979t.979-.396h2.167q.542 0 .958.396.417.396.417.979v7.75q0 .625-.396 1t-.979.375q-.583 0-.979-.396-.396-.395-.396-1.02Zm9.625 10.834v-4.959q0-.75.458-1.229.459-.479 1.25-.479.667 0 1.167.5t.5 1.167V29.5q0 .917-.625 1.562-.625.646-1.583.646h-18.75l1.75 1.75q.5.542.5 1.23 0 .687-.459 1.187-.541.5-1.208.521-.667.021-1.167-.479l-4.333-4.334q-.667-.666-.667-1.562t.667-1.563l4.292-4.291q.541-.542 1.25-.542.708 0 1.166.542.5.5.521 1.166.021.667-.521 1.209l-1.791 1.75ZM11.417 11.667v4.958q0 .792-.479 1.25-.48.458-1.23.458-.708 0-1.187-.479-.479-.479-.479-1.187V10.5q0-.958.625-1.604.625-.646 1.541-.646H29l-1.75-1.708q-.542-.5-.542-1.209 0-.708.459-1.208.5-.458 1.208-.479.708-.021 1.167.437l4.375 4.334q.625.666.625 1.562t-.625 1.563l-4.334 4.25q-.541.541-1.25.541-.708 0-1.166-.541-.5-.459-.5-1.146 0-.688.541-1.229L29 11.667Z"/></svg>

<svg xmlns="http://www.w3.org/2000/svg" height="40" width="40"><path d="M19 17.458H18.167Q17.583 17.458 17.208 17.062Q16.833 16.667 16.833 16.083Q16.833 15.5 17.229 15.104Q17.625 14.708 18.208 14.708H20.375Q20.917 14.708 21.333 15.104Q21.75 15.5 21.75 16.083V23.833Q21.75 24.458 21.354 24.833Q20.958 25.208 20.375 25.208Q19.792 25.208 19.396 24.812Q19 24.417 19 23.792ZM28.625 28.292V23.333Q28.625 22.583 29.083 22.104Q29.542 21.625 30.333 21.625Q31 21.625 31.5 22.125Q32 22.625 32 23.292V29.5Q32 30.417 31.375 31.062Q30.75 31.708 29.792 31.708H11.042L12.792 33.458Q13.292 34 13.292 34.688Q13.292 35.375 12.833 35.875Q12.292 36.375 11.625 36.396Q10.958 36.417 10.458 35.917L6.125 31.583Q5.458 30.917 5.458 30.021Q5.458 29.125 6.125 28.458L10.417 24.167Q10.958 23.625 11.667 23.625Q12.375 23.625 12.833 24.167Q13.333 24.667 13.354 25.333Q13.375 26 12.833 26.542L11.042 28.292ZM11.417 11.667V16.625Q11.417 17.417 10.938 17.875Q10.458 18.333 9.708 18.333Q9 18.333 8.521 17.854Q8.042 17.375 8.042 16.667V10.5Q8.042 9.542 8.667 8.896Q9.292 8.25 10.208 8.25H29L27.25 6.542Q26.708 6.042 26.708 5.333Q26.708 4.625 27.167 4.125Q27.667 3.667 28.375 3.646Q29.083 3.625 29.542 4.083L33.917 8.417Q34.542 9.083 34.542 9.979Q34.542 10.875 33.917 11.542L29.583 15.792Q29.042 16.333 28.333 16.333Q27.625 16.333 27.167 15.792Q26.667 15.333 26.667 14.646Q26.667 13.958 27.208 13.417L29 11.667Z"/></svg>
